X: 1
T: Captain Of The 22nd Regiment, The
M: 4/4
L: 1/8
R: reel
K: Gmin
B,2DF B2Bd | ccAc BBdf | b3b a2fa | gg =eg f2df | =eec_e ddBd |[M:3/2] cBAG FDEC DB,DF |
[M:4/4] B2Bd c2Ac | BBdf bfdf | gBbB a2fa |1 gf=ec B2FD :|2 gf=ec B2dc ||
|:[M:3/2] BG (3GGG DGBG dGBG | [M:4/4] FcAF cFAF | CFAF cFAc |
BAGA BABc |1 [M:3/2] dBBA BGAF G2dc :|2 [M:3/2] dBBA BGAF G2FD ||
